public/images/icons/wiki/straal/sirius.svg

<svg fill="none" height="300" stroke-width="10" width="300" xmlns="http://www.w3.org/2000/svg"><g stroke="#eee" stroke-linecap="round" stroke-linejoin="round"><path d="m150 105h15m-15 30-30 15 30 15 30-15zm75 45-15 15" fill="#eee" stroke-width="10"/><g stroke-width="5"><path d="m105 90 15-15h120v15" fill="#eee"/><path d="m60 90a0 105 0 0 0 0 105 15 15 0 0 0 15 15m-15-120h180a0 105 0 0 1 0 105-15 15 0 0 1 -15 15m-150 0h150m-165-15a0 15 0 0 0 0 15 15 15 0 0 0 15 15h150m15-15a-15 15 0 0 1 -15 15m15-15v-15" fill="none"/></g></g></svg>

<svg xmlns="http://www.w3.org/2000/svg" baseProfile="full" version="1.1" width="300px" height="300px" style="fill: none; width: 300px; height: 300px; stroke-width: 10;"><path d="M150,105 L150,105 L165,105 M210,90 L210,90 L210,90 M90,90 L90,90 L90,90 M150,135 L150,135 L120,150 L150,165 L180,150 L150,135 M225,180 L225,180 L210,195 " style="stroke-width: 10; stroke-linecap: round; stroke-linejoin: round; stroke: rgb(238, 238, 238); fill: rgb(238, 238, 238);"></path><path d="M105,90 L105,90 L120,75 L240,75 L240,90 " style="stroke-width: 5; stroke-linecap: round; stroke-linejoin: round; stroke: rgb(238, 238, 238); fill: rgb(238, 238, 238);"></path><path d="M60,90 A0,105 0 0,0 60,195 A15,15 0 0,0 75,210 M60,90 L60,90 L240,90 A0,105 0 0,1 240,195 A-15,15 0 0,1 225,210 M75,210 L75,210 L225,210 M60,195 A0,15 0 0,0 60,210 A15,15 0 0,0 75,225 L75,225 L225,225 M240,210 A-15,15 0 0,1 225,225 M240,210 L240,210 L240,195 " style="stroke-width: 5; stroke-linecap: round; stroke-linejoin: round; stroke: rgb(238, 238, 238); fill: none;"></path></svg>
